aliba_games/img/icon-usdt.svg

<svg width="16" height="16" viewBox="0 0 16 16" fill="none" xmlns="http://www.w3.org/2000/svg">
<g style="mix-blend-mode:luminosity">
<path d="M16 8C16 11.9174 13.1843 15.1772 9.46612 15.8658C8.99103 15.954 8.50091 16 8 16C7.44947 16 6.912 15.9445 6.39281 15.8384C2.74481 15.0945 0 11.8678 0 8C0 5.86744 0.834625 3.92916 2.19525 2.49534C2.27394 2.41209 2.35459 2.33078 2.43688 2.25109C3.87656 0.857469 5.83803 0 8 0C10.162 0 12.1234 0.857469 13.5631 2.25109C13.5971 2.28375 13.6307 2.31706 13.664 2.35034C15.1076 3.79722 16 5.79463 16 8Z" fill="#1BA27A"/>
<path d="M9.46613 6.80707V5.02423H13.664V2.25098H2.19525V5.0242H6.39282V6.81391C3.00213 6.98729 0.462036 7.69782 0.462036 8.54813C0.462036 9.39841 3.00213 10.1089 6.39282 10.2824V15.8383C6.912 15.9444 7.44947 15.9999 8 15.9999C8.50091 15.9999 8.99103 15.9539 9.46613 15.8657V10.2892C12.9273 10.1285 15.538 9.41016 15.538 8.54813C15.538 7.6861 12.9273 6.96773 9.46613 6.80707ZM8 9.64398C4.21779 9.64398 1.15169 9.0742 1.15169 8.37116C1.15169 7.77101 3.38613 7.26782 6.39285 7.1336V9.17213C6.90257 9.2456 7.41619 9.28251 7.9295 9.28251C8.44313 9.28251 8.95675 9.2456 9.46616 9.17213V7.12738C12.5437 7.25245 14.848 7.76151 14.848 8.37113C14.848 9.07416 11.7819 9.64398 8 9.64398Z" fill="#F0EFEB"/>
</g>
</svg>

<svg width="16" height="16" fill="none" xmlns="http://www.w3.org/2000/svg"><g style="mix-blend-mode:luminosity"><path d="M16 8a8.002 8.002 0 0 1-9.607 7.838A8.003 8.003 0 0 1 2.437 2.251 7.973 7.973 0 0 1 8 0a7.972 7.972 0 0 1 5.664 2.35A7.974 7.974 0 0 1 16 8z" fill="#1BA27A"/><path d="M9.466 6.807V5.024h4.198V2.251H2.195v2.773h4.198v1.79c-3.39.173-5.931.884-5.931 1.734s2.54 1.56 5.93 1.734v5.556a8.02 8.02 0 0 0 3.074.028v-5.577c3.461-.16 6.072-.879 6.072-1.74 0-.863-2.61-1.581-6.072-1.742zM8 9.644c-3.782 0-6.848-.57-6.848-1.273 0-.6 2.234-1.103 5.24-1.237v2.038a10.772 10.772 0 0 0 3.074 0V7.127c3.078.125 5.382.635 5.382 1.244 0 .703-3.066 1.273-6.848 1.273z" fill="#F0EFEB"/></g></svg>
